X:53
T:53.  Waiting for the Hammer to Fall (dada tuning)
C:c 1999 Harry Bolick
R:Breakdown
O:United States
A:Brooklyn, New York
M:4/4
L:1/8
Q:350
K:C %Transposed from Bb
 |: "Dm" D2 D2 FE D2 | E2 E2 "C" c4 |"Dm" f2 z g ag f2
|1 "Dm" dc Ac dc AF :|2 "Dm" dc Ac d2 d z|dc Ac d2 d2 ||
K:D
|: "D" f2 f4 f2 "A"| ef e2  "D" d2 c2 | "G" (BA) (Bc) "D" d z  AA| "G" (BA) (Bc) "D" d3 z |
"D" f2 f4 f2 "A"|  ef e2  "D" d2 c2 | "G" (BA) (Bc) "D" d z  AA| "G" (BA) (Bc) "D" d3 z  | d=c AB d2 d z :|
